static/sugar.svg

<svg xmlns="http://www.w3.org/2000/svg" width="481" height="521" fill="none"><path fill="#E4AD9A" fill-opacity=".42" d="M124.631 65.29s26.115 56.311 13.057 64.472c-3.474 2.172-8.797 3.881-14.739 5.789-16.391 5.263-37.492 12.039-37.492 34.201v65.289s148.134 43.027 227.828 30.928c12.135-1.843 22.684-4.963 30.881-9.709 62.024-35.909 136.291-34.277 136.291-34.277v-52.231c0-24.023-28.187-29.689-48.404-33.753-9.316-1.872-16.94-3.405-19.334-6.237-7.587-8.977 18.771-64.473 18.771-64.473s-90.346 14.69-158.084 14.69c-67.737 0-148.775-14.69-148.775-14.69"/><path fill="#E39B68" d="M480.457 276.5c-42.162 19.295-166.663 25.418-266 20.539-60.257-2.96-111.255-9.967-129-20.539v98c.013 16.782 46.716 27.71 108 32.87 116.942 9.846 286.976-1.311 287-32.87z"/><path fill="#FFF6EC" d="M480.457 374.5c-.024 31.559-170.058 42.716-287 32.87v62.888c107.867 8.267 260.906-1.343 284.027-25.574 1.947-2.04 2.973-4.184 2.973-6.43 0-3.38-.003-6.089-.006-9.257v-.005c-.008-8.282-.02-19.71.006-54.492"/><path fill="#F7E7D5" fill-rule="evenodd" d="M480.457 374.5v63.754c0-3.38-.003-6.089-.006-9.257v-.005c-.008-8.282-.02-19.71.006-54.492m-287 95.758c-61.292-4.697-108-15.166-108-32.004V374.5c.013 16.782 46.716 27.71 108 32.87zm-108-193.758c17.745 10.572 68.743 17.579 129 20.539l98.828-31.07c-79.694 12.099-227.828-30.928-227.828-30.928z" clip-rule="evenodd"/><path fill="#FFF6EC" d="M480.457 221.983s-74.267-1.632-136.291 34.277c-8.197 4.746-18.746 7.866-30.881 9.709l-98.828 31.07c99.337 4.879 223.838-1.244 266-20.539z"/><path fill="url(#a)" fill-opacity=".26" d="M477.484 444.684c-23.121 24.231-176.16 33.841-284.027 25.574-61.292-4.697-108-15.166-108-32.004 0 0-98.5 11.246-84 56.246 14.151 43.921 426.61 35.563 476.027-49.816"/><path fill="#A8B4BA" d="M441.278 35.91c0 19.831-73.077 35.908-163.223 35.908-90.145 0-163.223-16.077-163.223-35.909S187.91 0 278.055 0s163.223 16.077 163.223 35.91"/><path fill="#8B979D" d="M441.278 35.91c0 19.831-73.077 35.908-163.223 35.908-90.145 0-163.223-16.077-163.223-35.909 0 0-.005 12.242 0 45.703s326.446 33.46 326.446 0z"/><circle cx="163.957" cy="137.5" r="11.5" fill="#fff" fill-opacity=".6"/><path stroke="#fff" stroke-linecap="round" stroke-opacity=".61" stroke-width="17" d="M130.457 169v55"/><path fill="#D88F5B" d="m225.969 342.349-1.092 19.339q-.536 9.476-5.378 13.368-4.773 3.832-15.611 3.219-10.318-.582-14.937-5.27-4.552-4.684-4.051-13.576l1.093-19.339q.194-3.44 2.327-5.467 2.202-2.09 5.317-1.913 3.829.216 5.695 1.754 1.93 1.54 1.685 5.889l-1.195 21.156q-.053 2.08.462 3.347.58 1.27 1.588 1.847 1.013.513 2.635.605 1.623.091 2.683-.239 1.06-.332 1.562-1.149.567-.815.745-1.65.242-.833.319-2.196l1.199-21.221q.125-2.206.728-3.67.669-1.46 1.812-2.111 1.209-.648 2.391-.841 1.248-.19 2.935-.095 3.764.213 5.544 2.136t1.544 6.077M283.26 344.693q0-2.015-2.665-2.015-2.73 0-4.68 3.055t-1.95 10.205q0 6.63 2.21 9.685 2.275 2.99 5.33 2.99.975 0 1.755-.39a3.25 3.25 0 0 0 1.365-1.17q.52-.78.52-1.885-1.56 0-2.73-.585-1.105-.585-1.625-1.43a3.87 3.87 0 0 1-.52-1.95q0-2.34 1.235-3.51t4.225-1.17h7.865q3.77 0 5.85 1.625t2.08 5.72q0 5.98-5.72 10.465-5.72 4.42-13.585 4.42-7.215 0-12.87-2.6-5.59-2.6-8.905-7.735-3.25-5.2-3.25-12.285 0-10.53 6.37-16.64t16.9-6.11q4.16 0 7.475.65 3.315.585 5.46 1.625 2.21 1.04 3.64 2.535 1.495 1.43 2.08 3.055.65 1.625.65 3.38 0 1.235-.39 2.405-.39 1.105-1.43 2.275-.975 1.105-3.055 1.82t-5.005.715q-4.29 0-5.46-1.235-1.17-1.3-1.17-5.915M430.665 335.269q-.322-3.104-2.707-4.032-2.383-.928-7.75-.37l1.164 11.185q5.043-.525 7.307-2.002 2.322-1.549 1.986-4.781m-7.632 22.751q1.01 9.698-6.555 10.485-3.814.397-5.833-1.419-1.96-1.887-2.499-7.059l-2.838-27.283q-.39-3.75 1.412-5.898 1.86-2.22 5.157-2.562l13.577-1.413q7.953-.827 13.256 2.411 5.296 3.174 5.902 8.993.457 4.397-1.155 7.113-1.555 2.645-5.507 4.232 3.124-.129 6.07 2.44 2.94 2.505 3.378 6.707.444 4.267-.155 6.682-.54 2.343-1.946 3.274-1.407.93-4.122 1.213-3.815.396-5.786-.967-1.914-1.434-2.25-4.667-.417-4.009-1.415-6.061-1.005-2.118-2.3-2.636-1.295-.52-3.494-.29l-3.549.434zM357.281 341.475q-2.79.171-4.053 1.877-1.198 1.7-.943 5.854l.47 7.655 10.77-.661-.478-7.785q-.168-2.726-.916-4.307-.752-1.647-1.956-2.16-1.142-.58-2.894-.473m6.794 23.678-10.77.661.211 3.439q.204 3.309-1.453 4.973-1.656 1.664-5.938 1.928-1.816.111-3.016-.336t-2.184-1.624q-.92-1.181-1.516-3.489-.537-2.376-1-5.669-.401-3.363-.716-8.487-.275-4.477.406-8.231.742-3.822 2.14-6.513 1.463-2.695 3.354-4.765 1.888-2.135 4.156-3.381 2.332-1.25 4.507-1.904 2.235-.724 4.505-.863a19.1 19.1 0 0 1 5.433.448q2.704.55 5.54 2.199a18.9 18.9 0 0 1 5.015 4.251q2.24 2.532 3.8 6.735 1.56 4.202 1.887 9.522.526 8.563.132 12.756-.333 4.123-1.726 5.837-1.328 1.71-4.376 1.896-4.282.263-6.13-1.186-1.847-1.45-2.05-4.758zM136.435 323.722q7.612 1.371 12.421 5.474t4.176 7.621q-.173.959-.748 1.582a2.5 2.5 0 0 1-1.196.775q-.621.153-1.325.026-1.152-.207-3.247-1.774a59 59 0 0 0-4.692-3.288q-2.596-1.723-4.963-2.149-3.774-.68-4.327 2.391-.172.958.242 1.959.49.946 1.66 2.148a37 37 0 0 0 2.335 2.072q1.153.933 3.173 2.552a85 85 0 0 1 3.405 2.727q4.42 3.702 5.941 6.618 1.523 2.916.924 6.243-2.386 13.241-20.233 10.027a33.5 33.5 0 0 1-6.718-1.936q-3.137-1.291-5.424-2.892-2.223-1.59-3.889-3.343-1.601-1.741-2.296-3.385t-.464-2.924q.254-1.407 1.322-2.206 1.144-.85 2.935-.528 1.343.243 6.15 2.891 4.818 2.585 7.953 3.15 2.878.518 3.235-1.465a2.05 2.05 0 0 0-.071-1.07q-.1-.546-.595-1.097a5.4 5.4 0 0 0-1.054-1.115q-.56-.562-1.659-1.422a121 121 0 0 0-2.137-1.705 206 206 0 0 0-2.771-2.216 150 150 0 0 1-3.342-2.716 15.8 15.8 0 0 1-3.495-4.064q-1.305-2.282-1.728-4.34-.41-2.12-.111-3.784.968-5.374 6.377-7.9t14.236-.937"/><defs><linearGradient id="a" x1="170.456" x2="7.956" y1="448" y2="512" gradientUnits="userSpaceOnUse"><stop stop-color="#3D1305"/><stop offset="1" stop-color="#6D4234" stop-opacity="0"/></linearGradient></defs></svg>

<svg width="481" height="521" viewBox="0 0 481 521" fill="none" xmlns="http://www.w3.org/2000/svg">
<path d="M124.631 65.2891C124.631 65.2891 150.746 121.601 137.688 129.762C134.214 131.934 128.891 133.643 122.949 135.551C106.558 140.814 85.457 147.59 85.457 169.752L85.457 235.041C85.457 235.041 233.591 278.068 313.285 265.969C325.42 264.126 335.969 261.006 344.166 256.26C406.19 220.351 480.457 221.983 480.457 221.983V169.752C480.457 145.729 452.27 140.063 432.053 135.999C422.737 134.127 415.113 132.594 412.719 129.762C405.132 120.785 431.49 65.2891 431.49 65.2891C431.49 65.2891 341.144 79.9791 273.406 79.9791C205.669 79.9791 124.631 65.2891 124.631 65.2891Z" fill="#E4AD9A" fill-opacity="0.42"/>
<path d="M480.457 276.5C438.295 295.795 313.794 301.918 214.457 297.039C154.2 294.079 103.202 287.072 85.4569 276.5L85.4569 374.5C85.47 391.282 132.173 402.21 193.457 407.37C310.399 417.216 480.433 406.059 480.457 374.5V276.5Z" fill="#E39B68"/>
<path d="M480.457 374.5C480.433 406.059 310.399 417.216 193.457 407.37V470.258C301.324 478.525 454.363 468.915 477.484 444.684C479.431 442.644 480.457 440.5 480.457 438.254C480.457 434.874 480.454 432.165 480.451 428.997V428.994V428.992C480.443 420.71 480.431 409.282 480.457 374.5Z" fill="#FFF6EC"/>
<path fill-rule="evenodd" clip-rule="evenodd" d="M480.457 374.5V438.254C480.457 434.874 480.454 432.165 480.451 428.997V428.994V428.992C480.443 420.71 480.431 409.282 480.457 374.5ZM193.457 470.258C132.165 465.561 85.4571 455.092 85.457 438.254L85.4569 374.5C85.47 391.282 132.173 402.21 193.457 407.37V470.258ZM85.4569 276.5C103.202 287.072 154.2 294.079 214.457 297.039L313.285 265.969C233.591 278.068 85.457 235.041 85.457 235.041L85.4569 276.5Z" fill="#F7E7D5"/>
<path d="M480.457 221.983C480.457 221.983 406.19 220.351 344.166 256.26C335.969 261.006 325.42 264.126 313.285 265.969L214.457 297.039C313.794 301.918 438.295 295.795 480.457 276.5V221.983Z" fill="#FFF6EC"/>
<path d="M477.484 444.684C454.363 468.915 301.324 478.525 193.457 470.258C132.165 465.561 85.4571 455.092 85.457 438.254C85.457 438.254 -13.0422 449.5 1.4569 494.5C15.6085 538.421 428.067 530.063 477.484 444.684Z" fill="url(#paint0_linear_325_39)" fill-opacity="0.26"/>
<path d="M441.278 35.9091C441.278 55.7411 368.201 71.8182 278.055 71.8182C187.91 71.8182 114.832 55.7411 114.832 35.9091C114.832 16.077 187.91 0 278.055 0C368.201 0 441.278 16.077 441.278 35.9091Z" fill="#A8B4BA"/>
<path d="M441.278 35.9091C441.278 55.7411 368.201 71.8182 278.055 71.8182C187.91 71.8182 114.832 55.7411 114.832 35.9091C114.832 35.9091 114.827 48.1508 114.832 81.6115C114.837 115.072 441.278 115.072 441.278 81.6115V35.9091Z" fill="#8B979D"/>
<circle cx="163.957" cy="137.5" r="11.5" fill="white" fill-opacity="0.6"/>
<path d="M130.457 169L130.457 224" stroke="white" stroke-opacity="0.61" stroke-width="17" stroke-linecap="round"/>
<path d="M225.969 342.349L224.877 361.688C224.52 368.005 222.727 372.461 219.499 375.056C216.317 377.61 211.113 378.684 203.888 378.275C197.009 377.887 192.03 376.13 188.951 373.005C185.916 369.882 184.566 365.357 184.9 359.429L185.993 340.09C186.123 337.797 186.898 335.975 188.32 334.623C189.788 333.23 191.56 332.592 193.637 332.71C196.189 332.854 198.088 333.439 199.332 334.464C200.619 335.491 201.181 337.454 201.017 340.353L199.822 361.509C199.787 362.896 199.941 364.012 200.284 364.856C200.67 365.702 201.2 366.318 201.872 366.703C202.547 367.045 203.426 367.247 204.507 367.308C205.589 367.369 206.483 367.289 207.19 367.069C207.897 366.848 208.418 366.465 208.752 365.92C209.13 365.377 209.378 364.827 209.497 364.27C209.658 363.714 209.765 362.983 209.816 362.074L211.015 340.853C211.098 339.382 211.341 338.159 211.743 337.183C212.189 336.21 212.793 335.506 213.555 335.072C214.361 334.64 215.158 334.36 215.946 334.231C216.778 334.104 217.756 334.072 218.881 334.136C221.391 334.278 223.238 334.99 224.425 336.272C225.611 337.554 226.126 339.58 225.969 342.349Z" fill="#D88F5B"/>
<path d="M283.26 344.693C283.26 343.35 282.372 342.678 280.595 342.678C278.775 342.678 277.215 343.696 275.915 345.733C274.615 347.77 273.965 351.171 273.965 355.938C273.965 360.358 274.702 363.586 276.175 365.623C277.692 367.616 279.468 368.613 281.505 368.613C282.155 368.613 282.74 368.483 283.26 368.223C283.823 367.963 284.278 367.573 284.625 367.053C284.972 366.533 285.145 365.905 285.145 365.168C284.105 365.168 283.195 364.973 282.415 364.583C281.678 364.193 281.137 363.716 280.79 363.153C280.443 362.546 280.27 361.896 280.27 361.203C280.27 359.643 280.682 358.473 281.505 357.693C282.328 356.913 283.737 356.523 285.73 356.523H293.595C296.108 356.523 298.058 357.065 299.445 358.148C300.832 359.231 301.525 361.138 301.525 363.868C301.525 367.855 299.618 371.343 295.805 374.333C291.992 377.28 287.463 378.753 282.22 378.753C277.41 378.753 273.12 377.886 269.35 376.153C265.623 374.42 262.655 371.841 260.445 368.418C258.278 364.951 257.195 360.856 257.195 356.133C257.195 349.113 259.318 343.566 263.565 339.493C267.812 335.42 273.445 333.383 280.465 333.383C283.238 333.383 285.73 333.6 287.94 334.033C290.15 334.423 291.97 334.965 293.4 335.658C294.873 336.351 296.087 337.196 297.04 338.193C298.037 339.146 298.73 340.165 299.12 341.248C299.553 342.331 299.77 343.458 299.77 344.628C299.77 345.451 299.64 346.253 299.38 347.033C299.12 347.77 298.643 348.528 297.95 349.308C297.3 350.045 296.282 350.651 294.895 351.128C293.508 351.605 291.84 351.843 289.89 351.843C287.03 351.843 285.21 351.431 284.43 350.608C283.65 349.741 283.26 347.77 283.26 344.693Z" fill="#D88F5B"/>
<path d="M430.665 335.269C430.45 333.2 429.548 331.856 427.958 331.237C426.369 330.618 423.786 330.495 420.208 330.867L421.372 342.052C424.734 341.702 427.17 341.035 428.679 340.05C430.227 339.017 430.889 337.424 430.665 335.269ZM423.033 358.02C423.706 364.486 421.521 367.98 416.478 368.505C413.935 368.77 411.991 368.297 410.645 367.086C409.338 365.828 408.505 363.475 408.146 360.027L405.308 332.744C405.048 330.244 405.518 328.278 406.72 326.846C407.96 325.367 409.679 324.512 411.877 324.284L425.454 322.871C430.756 322.32 435.174 323.123 438.71 325.282C442.241 327.398 444.208 330.396 444.612 334.275C444.917 337.206 444.532 339.577 443.457 341.388C442.42 343.151 440.585 344.562 437.95 345.62C440.033 345.534 442.056 346.348 444.02 348.06C445.98 349.73 447.106 351.965 447.398 354.767C447.694 357.611 447.642 359.839 447.243 361.449C446.883 363.011 446.234 364.102 445.297 364.723C444.359 365.343 442.985 365.747 441.175 365.936C438.632 366.2 436.703 365.878 435.389 364.969C434.113 364.013 433.363 362.457 433.139 360.302C432.861 357.63 432.389 355.609 431.724 354.241C431.054 352.829 430.288 351.95 429.424 351.605C428.56 351.259 427.396 351.162 425.93 351.315L422.381 351.749L423.033 358.02Z" fill="#D88F5B"/>
<path d="M357.281 341.475C355.421 341.589 354.07 342.215 353.228 343.352C352.43 344.486 352.115 346.437 352.285 349.206L352.755 356.861L363.525 356.2L363.047 348.415C362.935 346.598 362.63 345.162 362.131 344.108C361.63 343.01 360.978 342.29 360.175 341.948C359.414 341.561 358.449 341.403 357.281 341.475ZM364.075 365.153L353.305 365.814L353.516 369.253C353.652 371.459 353.167 373.116 352.063 374.226C350.959 375.336 348.98 375.978 346.125 376.154C344.914 376.228 343.909 376.116 343.109 375.818C342.309 375.52 341.581 374.978 340.925 374.194C340.312 373.406 339.807 372.244 339.409 370.705C339.051 369.121 338.718 367.231 338.409 365.036C338.141 362.794 337.903 359.965 337.693 356.549C337.51 353.564 337.645 350.821 338.099 348.318C338.594 345.77 339.307 343.599 340.239 341.805C341.214 340.008 342.332 338.42 343.593 337.04C344.852 335.617 346.237 334.49 347.749 333.659C349.304 332.826 350.806 332.191 352.256 331.755C353.746 331.272 355.248 330.985 356.761 330.892C358.578 330.78 360.389 330.93 362.194 331.34C363.997 331.707 365.843 332.44 367.734 333.539C369.625 334.639 371.297 336.056 372.749 337.79C374.242 339.478 375.509 341.723 376.549 344.525C377.589 347.326 378.218 350.5 378.436 354.047C378.787 359.756 378.831 364.008 378.568 366.803C378.346 369.552 377.771 371.497 376.842 372.64C375.957 373.779 374.498 374.412 372.466 374.536C369.611 374.712 367.568 374.316 366.336 373.35C365.105 372.383 364.421 370.797 364.286 368.592L364.075 365.153Z" fill="#D88F5B"/>
<path d="M136.435 323.722C141.51 324.636 145.65 326.461 148.856 329.196C152.062 331.931 153.454 334.471 153.032 336.817C152.917 337.456 152.667 337.984 152.284 338.399C151.952 338.78 151.553 339.038 151.088 339.174C150.674 339.276 150.232 339.284 149.763 339.2C148.995 339.062 147.913 338.47 146.516 337.426C145.126 336.339 143.562 335.243 141.824 334.138C140.094 332.989 138.439 332.273 136.861 331.989C134.345 331.536 132.903 332.333 132.534 334.38C132.419 335.019 132.5 335.672 132.776 336.339C133.102 336.97 133.656 337.686 134.436 338.487C135.224 339.245 136.003 339.936 136.771 340.559C137.54 341.181 138.597 342.032 139.944 343.111C141.298 344.148 142.433 345.057 143.349 345.838C146.295 348.306 148.276 350.512 149.29 352.456C150.305 354.4 150.613 356.481 150.214 358.699C148.624 367.526 141.879 370.869 129.981 368.726C127.635 368.304 125.396 367.658 123.263 366.79C121.172 365.929 119.364 364.965 117.839 363.898C116.357 362.838 115.061 361.724 113.95 360.555C112.883 359.394 112.117 358.266 111.654 357.17C111.191 356.074 111.036 355.099 111.19 354.246C111.359 353.308 111.8 352.573 112.512 352.04C113.274 351.473 114.253 351.297 115.447 351.512C116.342 351.674 118.392 352.637 121.597 354.403C124.809 356.126 127.46 357.176 129.55 357.553C131.469 357.898 132.547 357.41 132.785 356.088C132.855 355.704 132.831 355.348 132.714 355.018C132.647 354.654 132.449 354.288 132.119 353.921C131.839 353.518 131.488 353.146 131.065 352.806C130.692 352.431 130.139 351.957 129.406 351.384C128.715 350.82 128.003 350.251 127.269 349.679C126.578 349.114 125.655 348.375 124.498 347.463C123.342 346.55 122.228 345.645 121.156 344.747C119.74 343.567 118.575 342.213 117.661 340.683C116.791 339.162 116.215 337.715 115.933 336.343C115.66 334.929 115.623 333.668 115.822 332.559C116.468 328.976 118.593 326.343 122.199 324.659C125.804 322.975 130.55 322.662 136.435 323.722Z" fill="#D88F5B"/>
<defs>
<linearGradient id="paint0_linear_325_39" x1="170.456" y1="448" x2="7.95605" y2="512" gradientUnits="userSpaceOnUse">
<stop stop-color="#3D1305"/>
<stop offset="1" stop-color="#6D4234" stop-opacity="0"/>
</linearGradient>
</defs>
</svg>
